X: 114
T: Wugeng yuan
%%abc-version 2.0
%%abcx-abcm2ps-target-version 5.9.1 (29 Sep 2008)
%%abc-creator hum2abc beta
%%abcx-conversion-date 2013/10/02 07:52:29
%%abc-edited-by Helmut Schaffrath
%%humdrum-veritas 1894455595
%%humdrum-veritas-data 476843681
%%continueall 1
%%barnumbers 0
L: 1/8
M: 2/4
K: G
B> c B E [I:setbarnb 1]| 
B> c B E | 
B c B B/ A/ | 
B> A B/ A/ G- | 
G G A B | 
B AG2 | 
A B E D | 
B,4 | 
E GB2 | 
zB2d | 
B AG2 | 
A> B E D | 
E E/ G/B,2 | 
B B/ A/B2 | 
E> FE2 | 
B B/ B/B2 | 
E G/ F/E2 | 
B/ d/ B/ A/ B B | 
F A,E2 | 
B> A B A | 
B EG2- | 
G2z2 | 
G> A B B/ d/ | 
B A G A | 
d B A A/ B/ | 
F ED2- | 
D2z2 |]  



